packages/core/src/svgs/route.svg

<svg width="24" height="24" viewBox="0 0 24 24" fill="none" xmlns="http://www.w3.org/2000/svg">
<g clip-path="url(#clip0_31_17475)">
<path d="M0 0H24V24H0V0Z" fill="#323150"/>
<path d="M8.64453 5.03555C8.59846 4.98828 8.57198 4.92535 8.57039 4.85937C8.5688 4.79339 8.59222 4.72926 8.63596 4.67983C8.85015 4.43222 9.11324 4.23159 9.4087 4.09054C9.70415 3.94949 10.0256 3.87106 10.3528 3.8602C10.68 3.84933 11.0059 3.90625 11.3101 4.02739C11.6143 4.14853 11.8901 4.33127 12.1202 4.56412L13.9202 6.35126C14.6053 7.04817 14.9926 7.984 15.0006 8.96117C15.0086 9.93833 14.6366 10.8804 13.9631 11.5884L11.666 13.9755L14.0574 16.4484C14.5222 16.9362 14.7821 17.5837 14.7837 18.2574C14.7853 18.9312 14.5284 19.5799 14.066 20.0698C14.0439 20.0932 14.0174 20.1118 13.9879 20.1245C13.9584 20.1372 13.9266 20.1438 13.8945 20.1438C13.8624 20.1438 13.8307 20.1372 13.8012 20.1245C13.7717 20.1118 13.7451 20.0932 13.7231 20.0698L10.2988 16.607C9.61562 15.9026 9.23426 14.9594 9.23586 13.9781C9.23746 12.9968 9.6219 12.0549 10.3074 11.3527L12.5874 9.05983L8.64453 5.03126V5.03555Z" fill="url(#paint0_linear_31_17475)"/>
<path d="M11.0573 10.5943L12.5831 9.06006C13.0563 9.51436 13.354 10.1211 13.4238 10.7734C13.4936 11.4257 13.3309 12.0817 12.9645 12.6258L11.6659 13.9715C11.1773 13.4786 10.2773 12.3001 11.0316 10.6543L11.0573 10.5943Z" fill="url(#paint1_linear_31_17475)"/>
</g>
<defs>
<linearGradient id="paint0_linear_31_17475" x1="15.3688" y1="10.4484" x2="10.4531" y2="10.4484" gradientUnits="userSpaceOnUse">
<stop stop-color="#FE8664"/>
<stop offset="1" stop-color="#FF3B56"/>
</linearGradient>
<linearGradient id="paint1_linear_31_17475" x1="13.2559" y1="10.0929" x2="11.0359" y2="13.3115" gradientUnits="userSpaceOnUse">
<stop stop-color="#AB3E55"/>
<stop offset="0.51" stop-color="#BD4551"/>
<stop offset="1" stop-color="#AB3E55"/>
</linearGradient>
<clipPath id="clip0_31_17475">
<rect width="24" height="24" fill="white"/>
</clipPath>
</defs>
</svg>

<svg xmlns="http://www.w3.org/2000/svg" width="24" height="24" fill="none" viewBox="0 0 24 24"><g clip-path="url(#a)"><path fill="#323150" d="M0 0h24v24H0z"/><path fill="url(#b)" d="M8.645 5.036a.26.26 0 0 1-.009-.356 2.374 2.374 0 0 1 3.484-.116l1.8 1.787a3.767 3.767 0 0 1 .043 5.237l-2.297 2.388 2.391 2.472a2.63 2.63 0 0 1 .009 3.622.235.235 0 0 1-.343 0L10.3 16.607a3.767 3.767 0 0 1 .008-5.254l2.28-2.293L8.645 5.03z"/><path fill="url(#c)" d="m11.057 10.594 1.526-1.534a2.786 2.786 0 0 1 .381 3.566l-1.298 1.346c-.489-.493-1.389-1.672-.634-3.318z"/></g><defs><linearGradient id="b" x1="15.369" x2="10.453" y1="10.448" y2="10.448" gradientUnits="userSpaceOnUse"><stop stop-color="#FE8664"/><stop offset="1" stop-color="#FF3B56"/></linearGradient><linearGradient id="c" x1="13.256" x2="11.036" y1="10.093" y2="13.312" gradientUnits="userSpaceOnUse"><stop stop-color="#AB3E55"/><stop offset=".51" stop-color="#BD4551"/><stop offset="1" stop-color="#AB3E55"/></linearGradient><clipPath id="a"><path fill="#fff" d="M0 0h24v24H0z"/></clipPath></defs></svg>
